!!!!SEGMENT: pl-kk--kk-i-513--002_haser-august-ferdinand--miserere-et-secundum-multitudinem.krn
!!!cenid: 17xx:1842
!!!COM: Häser, August Ferdinand
!!!COM-rismID: pe37240
!!!CDT: 1779/10/15-1844/11/01
!!!CNT: German
!!!OPR: Miserere
!!!OTL: Et secundum multitudinem
!!!OMV: 002
!!!PDT:
!!!AGN: Sacred
!!!SMS-siglum: PL-Kk
!!!SMS-shelfmark: Kk.I.513
!!!SMS-shelfwork: 001-002 M
!!!SMS-variant:
!!!SMS-altvar:
!!!NIFC-rismSourceID: 1001137722
!!!NIFC-rismChildID: 1001138464
!!!NIFC-islandoraID: pl-kk:14834
!!!URL-pdf-islandora: https://repozytorium.nifc.pl/islandora/object/pl-kk%3A14834/datastream/PDF/view
!!!URL-scan: https://polish.musicsources.pl/pl/lokalizacje/galeria/rekopisy/6123 @EN{Scan on Polish Music Sources Website} @PL{Skany w portalu Dziedzictwo Muzyki Polskiej w otwartym dostępie}
!!!ONB-nifc:
!!!AIN: 1 alto 1 bass 1 empty 1 organ 1 soprn 1 tenor
!!!key:
**kern	**kern	**kern	**text	**dynam	**kern	**text	**dynam	**kern	**text	**dynam	**kern	**text	**dynam
*part6	*part5	*part4	*part4	*part4	*part3	*part3	*part3	*part2	*part2	*part2	*part1	*part1	*part1
*staff6	*staff5	*staff4	*staff4	*	*staff3	*staff3	*	*staff2	*staff2	*	*staff1	*staff1	*
*Iempty	*Iorgan	*Ibass	*	*	*Itenor	*	*	*Ialto	*	*	*Isoprn	*	*
*	*I"[Organo]	*I"Basso.	*	*	*I"Tenore.	*	*	*I"Alto	*	*	*I"Soprano.	*	*
*	*I'[org]	*I'B	*	*	*I'T	*	*	*I'A	*	*	*I'S	*	*
*clefF4	*clefG2	*clefF4	*	*	*clefC4	*	*	*clefG2	*	*	*clefG2	*	*
*k[]	*k[]	*k[]	*	*	*k[]	*	*	*k[]	*	*	*k[]	*	*
*a:	*a:	*a:	*	*	*a:	*	*	*a:	*	*	*a:	*	*
*M4/4	*M4/4	*M4/4	*	*	*M4/4	*	*	*M4/4	*	*	*M4/4	*	*
*met(c)	*met(c)	*met(c)	*	*	*met(c)	*	*	*met(c)	*	*	*met(c)	*	*
=1	=1	=1	=1	=1	=1	=1	=1	=1	=1	=1	=1	=1	=1
*2\right	*2\right	*2\right	*	*	*2\right	*	*	*	*	*	*2\right	*	*
!	!	!LO:TX:t=P:problem=all\right&colon; global	!	!	!LO:TX:t=P:problem=all\right&colon; global	!	!	!	!	!	!LO:TX:t=P:problem=all\right&colon; global	!	!
!	!LO:TX:t=P:problem=w źródle brak oznaczenia tempa	!	!	!	!	!	!	!	!	!	!	!	!
!	!	!	!	!	!LO:TX:a:Bi:t=No. 2o.:problem='No. 2o.' znajduje się przed kluczem i oznaczeniem metrum na pięciolinii	!	!	!LO:TX:a:Bi:t=No. 2o.:problem='No. 2o.' znajduje się przed kluczem i oznaczeniem metrum na pięciolinii	!	!	!LO:TX:a:Bi:t=No. 2o.:problem='No. 2o.' znajduje się przed kluczem i oznaczeniem metrum na pięciolinii	!	!
!	!LO:TX:a:Bi:t=No&colon; 2&colon;:problem='No&colon; 2&colon;' znajduje się przed kluczem i oznaczeniem metrum	!LO:TX:a:Bi:t=No. 2o.:problem='No. 2o.' znajduje się przed kluczem i oznaczeniem metrum na pięciolinii	!	!	!	!	!	!	!	!	!	!	!
!	!	!	!	!	!	!	!	!LO:TX:t=P:problem=w źródle brak oznaczenia tempa	!	!	!LO:TX:t=P:problem=w źródle brak oznaczenia tempa	!	!
!	!	!LO:TX:a:Bi:t=Meno largo.:rj	!	!	!LO:TX:a:Bi:t=meno Largo.:rj	!	!	!	!	!	!	!	!
!	!	!	!	!LO:DY:a	!	!	!LO:DY:b:rj	!	!	!LO:DY:b:rj	!	!	!
2r	2r	2r	.	p	2r	.	p	2r	.	p	2r	.	.
!	!	!	!	!	!	!	!	!LO:TX:a:Bi:t=cres_cen_do:problem=dynamics with extention lines	!	!	!	!	!
!	!	!	!	!	!	!	!	!	!	!LO:HP:a:Bi:t=cres_cen_do:ext=ud	!	!	!LO:DY:a:rj
2A 2AA\	2a 2e 2c/	4A\	Et	.	4c\	Et	.	4e/	Et	<	4a/	Et	p
.	.	4A\	se-	.	4c\	se-	.	4e/	se-	.	4a/	se-	.
=2	=2	=2	=2	=2	=2	=2	=2	=2	=2	=2	=2	=2	=2
*	*^	*	*	*	*	*	*	*	*	*	*	*	*
2.E\	4a/	1e 1B	4E\	-cun-	.	4B\	-cun-	.	4e/	-cun-	.	4a/	-cun-	.
.	8g#X/L	.	4E\	-dum	.	4B\	-dum	.	4e/	-dum	.	(<8g#X/L	-dum	.
.	8f#X/J	.	.	.	.	.	.	.	.	.	.	8f#X/J)	.	.
.	4g#/	.	4E\	mul-	.	4B\	mul-	.	4e/	mul-	.	4g#/	mul-	.
4GG#X/	4e/	.	4GG#X/	-ti-	.	4B\	-ti-	.	4e/	-ti-	.	4e/	-ti-	.
!LO:LB:g=original	!LO:LB:g=original	!	!	!	!	!	!	!	!	!	!	!	!	!
=3	=3	=3	=3	=3	=3	=3	=3	=3	=3	=3	=3	=3	=3	=3
*^	*	*	*	*	*	*	*	*	*	*	*	*	*	*
4A\	2AA\	1cc	2.e\	4AA/	-tu-	.	(>4B\	-tu-	.	4e/	-tu-	[	4cc\	-tu-	.
8A\L	.	.	.	4AA/	-di-	.	8A\)	.	.	4e/	-di-	.	4cc\	-di-	.
8G#X\J	.	.	.	.	.	.	8G#X/	-di-	.	.	.	.	.	.	.
2A 2AA\	2ryy	.	.	2A\	-nem	.	2A/	-nem	.	(<4e/	-nem	.	2cc\	-nem	.
.	.	.	4f#X\	.	.	.	.	.	.	4f#X/)	.	.	.	.	.
*v	*v	*	*	*	*	*	*	*	*	*	*	*	*	*	*
=4	=4	=4	=4	=4	=4	=4	=4	=4	=4	=4	=4	=4	=4	=4
2.G\	4cc 4g/	1g 1d	4G\	mi-	.	4d\	mi-	.	4g/	mi-	.	4cc\	mi-	.
.	8b/L	.	4G\	-se-	.	4d\	-se-	.	4g/	-se-	.	(>8b\L	-se-	.
.	8a/J	.	.	.	.	.	.	.	.	.	.	8a\J)	.	.
.	4b/	.	4G\	-ra-	.	4d\	-ra-	.	4g/	-ra-	.	4b/	-ra-	.
!	!	!	!LO:TX:b:i:t=h:rj	!	!	!	!	!	!	!	!	!	!	!
4BB/	4g/	.	4BB/	-ti-	.	4d\	-ti-	.	4g/	-ti-	.	4g/	-ti-	.
*	*v	*v	*	*	*	*	*	*	*	*	*	*	*	*
=5	=5	=5	=5	=5	=5	=5	=5	=5	=5	=5	=5	=5	=5
*^	*	*	*	*	*	*	*	*	*	*	*	*	*
!	!	!	!	!	!LO:DY:a:rj	!	!	!LO:DY:a:rj	!	!	!LO:DY:b:rj	!	!	!LO:DY:a:rj
4d/	1C	1ee 1g	2C/	-o-	ff	(>4d\	-o-	ff	2g/	-o-	f	2ee\	-o-	f
8c/L	.	.	.	.	.	8c\L	.	.	.	.	.	.	.	.
8B/J	.	.	.	.	.	8B\J)	.	.	.	.	.	.	.	.
!	!	!	!	!	!	!	!	!	!	!	!	!LO:SIC:l:s=-num:v	!	!
2c/	.	.	4c\	-num	.	4c\	-num	.	4g/	-num	.	4ee\	-nem	.
.	.	.	4c\	tu-	.	4c\	tu-	.	4g/	tu-	.	4ee\	tu-	.
!	!	!	!	!	!	!LO:LB:g=original	!	!	!LO:LB:g=original	!	!	!	!	!
*v	*v	*	*	*	*	*	*	*	*	*	*	*	*	*
=6	=6	=6	=6	=6	=6	=6	=6	=6	=6	=6	=6	=6	=6
*	*^	*	*	*	*	*	*	*	*	*	*	*	*
!	!	!	!	!	!	!	!	!	!	!	!	!LO:TX:a:t=P:problem=diminuendolike accent	!	!
1e 1c	1a	4r	1c	-a-	.	1e^<	-o-	.	4a/	-a-	.	1a^>	-a-	.
.	.	4g\	.	.	.	.	.	.	(>4g/	.	.	.	.	.
.	.	4f#X\	.	.	.	.	.	.	4f#X/	.	.	.	.	.
.	.	4e\	.	.	.	.	.	.	4e/	.	.	.	.	.
!	!	!	!LO:LB:g=original	!	!	!	!	!	!	!	!	!LO:LB:g=original	!	!
=7	=7	=7	=7	=7	=7	=7	=7	=7	=7	=7	=7	=7	=7	=7
2B 2BB\	2b 2f#X 2d#X/	2ryy	2B\	-rum	.	2d#X\	-rum	.	2f#X/)	-rum	.	2b\	-rum	.
!	!	!	!	!	!	!	!	!LO:DY:b:rj	!	!	!	!	!	!
2A 2AA\	2cc/	2f#X 2e\	[>2A\	de-	.	(>2e\	de-	sf	(<2e/	de-	.	[>2cc\	de-	.
!LO:PB:g=original	!LO:PB:g=original	!	!	!	!	!	!	!	!	!	!	!	!	!
*	*v	*v	*	*	*	*	*	*	*	*	*	*	*	*
=8	=8	=8	=8	=8	=8	=8	=8	=8	=8	=8	=8	=8	=8
2A 2AA\	2cc 2f#X 2d#X/	2A\]	.	.	2d#X\)	.	.	2f#X/)	.	.	2cc\]	.	.
!	!	!	!	!	!	!	!LO:DY:a:rj	!	!	!	!	!	!LO:DY:a:rj
2G 2GG\	2b 2e/	[>2G\	-le	.	[>2e\	-le	f	[<2g/	-le	.	[>2b\	-le	f
=9	=9	=9	=9	=9	=9	=9	=9	=9	=9	=9	=9	=9	=9
1G 1GG	1b 1e 1B	4G\]	[[de]]	.	4e\]	.	.	4g/]	de-	.	4b/]	,	.
!	!	!	!	!	!	!	!LO:DY:b:rj	!	!	!	!	!	!
.	.	4G\	de-	.	2.B\	de-	p	2.e/	.	.	4b/	de-	.
.	.	4G\	-le	.	.	.	.	.	.	.	4b/	-le	.
.	.	4G\	in-	.	.	.	.	.	.	.	4b/	i-	.
=10	=10	=10	=10	=10	=10	=10	=10	=10	=10	=10	=10	=10	=10
1F#X	1a#X 1e 1c#X	2.F#X\	-[[n]]i-	.	4c#X\	-le	.	4e/	-le	.	2.a#X/	-ni-	.
.	.	.	.	.	4c#\	de-	.	4e/	de-	.	.	.	.
.	.	.	.	.	4c#\	-le	.	4e/	-le	.	.	.	.
.	.	4F#\	-qui-	.	4c#\	i-	.	4e/	in-	.	4a#/	-qui-	.
=11	=11	=11	=11	=11	=11	=11	=11	=11	=11	=11	=11	=11	=11
1B 1BB	1an 1f#X 1d#X	2.B\	-ta-	.	4d#X\	-ni-	.	4f#X/	-[[n]]i-	.	2.an/	-ta-	.
.	.	.	.	.	4d#\	-qui-	.	4f#/	-qui-	.	.	.	.
.	.	.	.	.	4d#\	-ta-	.	4f#/	-ta-	.	.	.	.
.	.	4BB/	-tem	.	4d#\	-tem	.	4f#/	-tem	.	4a/	-tem	.
!	!	!	!	!	!	!	!	!LO:LB:g=original	!	!	!	!	!
=12	=12	=12	=12	=12	=12	=12	=12	=12	=12	=12	=12	=12	=12
*	*^	*	*	*	*	*	*	*	*	*	*	*	*
1B 1E	[>2g/	4f#X\	2E\	me-	.	2B\	me-	.	(<4f#X/	me-	.	2g/	me-	.
.	.	8e\L	.	.	.	.	.	.	8e/L	.	.	.	.	.
.	.	8d#X\J	.	.	.	.	.	.	8d#X/J)	.	.	.	.	.
!	!LO:TX:t=P:problem=w źródle ligatura [2g 2g] lub łuk w drugiej warstwie(8e 8d#)	!	!	!	!	!	!	!	!	!	!	!	!	!
.	2g/]	2e\	2E\	-am,	.	2B\	-am	.	2e/	-am,	.	2g/	-am	.
!	!	!	!	!	!	!LO:LB:g=original	!	!	!	!	!	!	!	!
=13	=13	=13	=13	=13	=13	=13	=13	=13	=13	=13	=13	=13	=13	=13
2r	2r	2ryy	2r	.	.	2r	.	.	2r	.	.	2r	.	.
!	!	!	!	!	!	!	!	!LO:DY:a:rj	!	!	!LO:DY:a:rj	!	!	!
2F#X 2D\	2b/	2a\	(>2D#X/	de-	.	4F#X/	de-	ff	2a/	de-	f	[>2b/	de-	.
.	.	.	.	.	.	(<4F#/	-le	.	.	.	.	.	.	.
!	!	!	!	!	!	!	!	!	!	!	!	!LO:LB:g=original	!	!
=14	=14	=14	=14	=14	=14	=14	=14	=14	=14	=14	=14	=14	=14	=14
4G 4E\	2.b/	4e\	(>4E\)	.	.	4G/	de-	.	4g/	.	.	2b\]	.	.
4A 4F#X\	.	4d#X\	4F#X\)	-[[le]]-	.	4A/)	.	.	4d#X/	.	.	.	.	.
4B 4G\	.	4e\	4G\	-le	.	4B/	-le	.	4e/	-le	.	4b/	-le	.
!	!	!	!	!	!	!	!	!	!LO:TX:a:t=P:problem=w źródle oznaczenie dodanego przez skryptora fragmentu vi-de, re-tro	!	!	!	!	!
!	!	!	!	!	!	!	!	!	!LO:TX:a:Bi:t=vi	!	!	!	!	!
4B 4A\	4dd#X/	4f#X\	4A\	in-	.	4B/	i-	.	4f#X/	i-	.	4dd#X\	i-	.
!LO:LB:g=original	!LO:LB:g=original	!	!LO:LB:g=original	!	!	!	!	!	!	!	!	!	!	!
*	*v	*v	*	*	*	*	*	*	*	*	*	*	*	*
=15	=15	=15	=15	=15	=15	=15	=15	=15	=15	=15	=15	=15	=15
!	!	!	!	!	!	!	!	!LO:TX:a:Bi:t=de	!	!	!	!	!
!	!	!	!	!	!LO:TX:a:Bi:t=Diminuendo:problem=dynamics with extention lines	!	!	!	!	!	!	!	!
!	!	!	!	!	!	!	!LO:HP:a:Bi:t=Diminuendo	!	!	!	!	!	!
4B 4G\	4ee 4e/	(>4G\	-i-	.	4B/	-ni-	>	4e/	-ni-	.	4ee\	-mi-	.
4A 4F#X\	4cc 4d#X/	4F#X\)	-qui-	.	4A/	-qui-	.	4d#X/	-qui-	.	4cc\	-qui-	.
!	!	!	!	!LO:DY:a:rj	!	!	!	!	!	!	!	!	!
4B 4G\	4b 4e/	4G\	-ta-	p	4B\	-ta-	.	4e/	-ta-	.	4b/	-ta-	.
!	!	!	!	!	!	!	!	!LO:TX:a:Bi:t=re	!	!	!	!	!
4c 4A\	4a 4f#X/	4A\	-tem	.	4c\	-tem	]	4f#X/	-tem.	.	4a/	-tem	.
=16	=16	=16	=16	=16	=16	=16	=16	=16	=16	=16	=16	=16	=16
*^	*	*	*	*	*	*	*	*	*	*	*	*	*
!	!	!	!	!	!	!	!	!	!LO:TX:a:Bi:t=tro.:rj	!	!	!	!	!
2.B\	1BB	2g 2e/	2B\	me-	.	2.B\	me-	.	2e/	me-	.	2g/	me-	.
.	.	2f#X 2d#X/	2BB/	.	.	.	.	.	2d#X/	.	.	2f#X/	.	.
4A/	.	.	.	.	.	4A/	.	.	.	.	.	.	.	.
*v	*v	*	*	*	*	*	*	*	*	*	*	*	*	*
=17	=17	=17	=17	=17	=17	=17	=17	=17	=17	=17	=17	=17	=17
!	!	!	!	!	!LO:SIC:s=2G:v	!	!	!	!	!	!	!	!
!	!	!	!	!	!LO:TX:b:t=a	!	!	!	!	!	!	!	!
2G 2E\	2e 2B/	2E\	-am!	.	2F/	-am.	.	2e/	-am	.	2e/	-am.	.
2r	2r	2r	.	.	2r	.	.	2r	.	.	2r	.	.
==	==	==	==	==	==	==	==	==	==	==	==	==	==
*-	*-	*-	*-	*-	*-	*-	*-	*-	*-	*-	*-	*-	*-
!!!system-decoration: [(s1,s2,s3,s4)][(s5,s6)]
!!!RDF**kern: > = above
!!!RDF**kern: < = below
!!!EED: Wojciech Jakubiak-Danek
!!!EEV: 2021-01-02
!!!ENC: Andrzej Kubiczek
!!!END: 2021-01-01
!!!YEC: Copyright 2022 Narodowy Instytut Fryderyka Chopina (https://polishscores.org)
!!!YEM: License CC-BY-4.0 (https://creativecommons.org/licenses/by/4.0)
